!!!COM: Bach, Johann Sebastian
!!!OPR: Joh. Seb. Bachs vierstimmige Choralgesänge
!!!XEN: Four-part Chorales
!!!OTL: 116. Keinen hat Gott verlassen
!!!SCT: BWV 369
!!!SCA: Thematisch-systematisches Verzeichnis der musikalischen Werke Johann Sebastian Bach: Bach-Werke-Verzeichnis (Schmieder)
!!!YOR: Bach Gesellschaft Edition xxxix
!!!ENC: Steven Rasmussen
!!!CDT: 1685/3//-1750/7/28/
!!!OCY: Deutschland
!!!YEC: Copyright (c) 1994, 2000 Center for Computer Assisted Research in the Humanities
!!!YEM: Rights to all derivative editions reserved
!!!YEN: United States of America
**kern	**kern	**kern	**kern	**silbe
*I:[BASSO]	*I:[TENORE]	*I:[ALTO]	*I:[SOPRANO]	*I:[SOPRANO]
*>[A,A,B]	*>[A,A,B]	*>[A,A,B]	*>[A,A,B]	*
*>A	*>A	*>A	*>A	*
*clefF4	*clefGv2	*clefG2	*clefG2	*
*k[f#]	*k[f#]	*k[f#]	*k[f#]	*
*G:	*G:	*G:	*G:	*
*M4/4	*M4/4	*M4/4	*M4/4	*
4E	4G	4e	4b	Kei-ob
=1	=1	=1	=1	=1
4D#	8F#L	4f#	4b	-nenihn
.	8GJ	.	.	.
4BB	4A	8eL	4b	hatschon
.	.	8d#J	.	.
8EL	4G	8eL	4b	Gottdrum
8DnJ	.	8f#J	.	.
4C	8cL	4g	4ee	ver-viel'
.	8BJ	.	.	.
=2	=2	=2	=2	=2
2D	8AL	4g	4.dd	-las-has-
.	8GJ	.	.	.
.	4A	4f#	.	.
.	.	.	8cc	.
4GG;	4G;	4d;	4b;	-sen,-sen,
4G	4G	4d	8bL	derso
.	.	.	8ccJ	.
=3	=3	=3	=3	=3
8F#L	4A	4d	4dd	ihmbringt's
8EJ	.	.	.	.
4D	4A	8dL	4f#	ver-ihm
.	.	8cJ	.	.
8EL	8GL	4B	4g	-trautdoch
8DJ	8F#J	.	.	.
4C	4E	4e	4a	all-kein
=4	=4	=4	=4	=4
2.BB;	2.F#;	2.d#;	2.b;	-zeit;Leid.
=:|!	=:|!	=:|!	=:|!	=:|!
*>B	*>B	*>B	*>B	*
4C#	4E	4e	4a	Gott
=5	=5	=5	=5	=5
4D	8F#L	4d	4a	will
.	8EJ	.	.	.
8DL	8F#L	8dL	4a	die
8EJ	8GJ	8c#J	.	.
4F#	4A	8dL	4a	Sei-
.	.	8eJ	.	.
4D	4d	4f#	4a	-nen
=6	=6	=6	=6	=6
8GGL	2d	2g	2b	schÃ¼-
8AA	.	.	.	.
8BB	.	.	.	.
8CJ	.	.	.	.
4D;	4d;	4f#;	4a;	-tzen,
4F#	4d	4a	4a	zu-
=7	=7	=7	=7	=7
4G	4d	4g	8bL	-letzt
.	.	.	8cc#J	.
8F#L	8dL	4a	4dd	er-
8GJ	8eJ	.	.	.
4A	4f#	4.a	4dd	-he-
4AA	4e	.	4cc#	-ben
.	.	8g	.	.
=8	=8	=8	=8	=8
2.D;	2.d;	2.f#;	2.dd;	hoch,
4D	4A	4f#	4dd	und
=9	=9	=9	=9	=9
8GL	4G	4d	4b	ge-
8AJ	.	.	.	.
8GL	4d	4g	4b	-ben,
8FnJ	.	.	.	.
8EL	4e	4g	4cc	was
8FJ	.	.	.	.
8EL	4B	4fn	4dd	ihn'n
8DJ	.	.	.	.
=10	=10	=10	=10	=10
8CL	4B	2e	2ee	nÃ¼-
8BB	.	.	.	.
8C	4A	.	.	.
8DJ	.	.	.	.
4E;	4G;	4e;	4b;	-tzet,
4GG	4B	4e	4b	hier
=11	=11	=11	=11	=11
4C	4E	4e	4a	zeit-
8BBL	4c	4e	8gL	-lich
8AAJ	.	.	8f#J	.
4BB	8BL	4e	4.f#	und
.	8GJ	.	.	.
4BB	4A	4d#	.	.
.	.	.	8e	auch
=12	=12	=12	=12	=12
2.EE;	2.G#;	2.B;	2.e;	dort.
==|!	==|!	==|!	==|!	==|!
*-	*-	*-	*-	*-
!!!RWG: Key is interpreted using the Humdrum key tool.
!!!URL-pdf: https://s9.imslp.org/files/imglnks/usimg/6/6b/IMSLP24489-PMLP09471-CCARH_Bach_Chorales.pdf#page=81 Musedata edition
!!!URL-pdf: https://s9.imslp.org/files/imglnks/usimg/7/7a/IMSLP04155-Bach_-_BGA_253-438.pdf#page=63 	Bach-Gesellschaft Ausgabe, Band 39 (pp.175-276) Leipzig: Breitkopf und Härtel, 1892. Plate B.W. XXXIX.
!!!END: 1994/07/13
!!!EMD: Converted from MuseData to Humdrum Dec 19, 2000, by Andreas Kornstaedt using muse2kern.
!!!EED: Craig Stuart Sapp
!!!EEV: 2024/03/31
!!!filter-keyboard: satb2gs
